X:293
M:C|
L:1/8
K:C
e/f/|g<c e>d c2 ce/f/|g<c a>c B<dde/f/|g<c e>d c2 c/B/A/G/|
E>Gc>E F>Ad>f|e/f/g/a/ g/f/e/d/ e<c ~c||

